!!!!SEGMENT:24Hitotugane_c.krn
!!!OTL: 一ツ鐘
!!!OPR:Eiga Banso Kyokusyu,jidai-geki,zenpen
!!!YOY:1929
!!!ONB:Dairantou,Fewpeople
**kern
*clefG2
*C:
*M2/4
8ff#L
8ff#J
=1
8ff#
8r
8ff#
8r
=2
8ff#L
8ff#J
8BL
8eJ
=3
8f#
8r
8ddL
8ddJ
=4
4dd
8ddL
8ddJ
=5
8cc#XL
8gJ
8f#L
8aJ
=6
8eL
8aJ
8bL
8aJ
=7
4b
8eeL
8bbJ
=8
4bb
8eeL
8bbJ
=9
4bb
4r
=10
8ff#L
8aaJ
8bbL
8aaJ
=11
16bbLL
16bb
16bb
16aaJJ
8ff#L
8eeJ
=12
8ff#L
8eeJ
8eL
8cc#XJ
=13
4cc#X
4r
=14
4e
8dL
8dJ
=15
4e
8aL
8bJ
=16
8dd
8r
8ee
8r
=17
8ff#L
8ff#J
8eeL
8ff#J
=18
8ddL
8ddJ
8eeL
8ddJ
=19
4b
8ccL
8bJ
=20
4B
8r
8a
=21
4fn
8aL
8bJ
=22
8eL
8eJ
8eL
8cJ
=23
4B
4r
==
*-
!!!ENC: Yukiko Yoden
!!!END: 2023/06/11
